X: 30060
T: Ogham Stone, The
R: jig
M: 6/8
K: Gmajor
|:~G2A~B2A|GEDD2E|GAB ~c2A|Bde edB|
~G2AB2A|GEDD2E|GAB ~B2A|1 GEE EDE:|2 GEE EDB||
|:d3- dBA|BGF GB/c/d|ege ~g2a|ged BAA|
ged Bge|dBA ~G2 D|EGA ~B2G|1 AGE EDB:|2 AGE EDE||

